X: 14
T: Eavesdropper, The
I: Eavesdropper, The	J-58	G	jig	Set 44
M: 6/8
R: jig
K: G
GE| "G"DBB BAG| Bdd dBG| "C"cde "G"dBG| "Am"BAA "D"AGE|
    "G"DBB BAG| Bdd dBG| "C"cde "G"dBA| "D"AGF "G"G :|
|:Bd| "G"g3  "D"afd| "C"efg "G"dBG| "C"cde "G"dBG| "Am"BAA ABd|
    "G"g2b "D"afd| "C"efg "G"dBG| "C"cde "G"dBA| "D"AGF "G"G :|
%%text Roaring Jelly J-58

